src/static/logos/codio.svg

<?xml version="1.0" encoding="UTF-8" standalone="no"?>
<svg width="256px" height="296px" viewBox="0 0 256 296" version="1.1" xmlns="http://www.w3.org/2000/svg" xmlns:xlink="http://www.w3.org/1999/xlink" preserveAspectRatio="xMidYMid">
	<g>
		<path d="M125.305643,214.373041 L126.239812,292.10423 L127.919749,295.563636 L255.598746,221.813166 L183.29279,180.002508 L127.919749,211.94232 L125.305643,214.373041 Z" fill="#A3BAF0"></path>
		<path d="M0.240752351,221.813166 L127.919749,295.563636 L127.919749,212.022571 L72.6269592,180.082759 L72.6269592,116.203135 L72.6269568,113.083071 L4.9545453,74.3924765 L0.240752351,74.3924765 L0.240752351,221.813166 Z" fill="#4474E1"></path>
		<path d="M2.96584007,75.9665017 C13.2811402,81.9246739 50.3589941,103.34104 70.344363,114.884695 C71.1052284,115.324175 72.6269592,116.203135 72.6269592,116.203135 L127.919749,84.2633229 L183.29279,116.203135 L255.598746,74.3924765 L127.919749,0.64200627 L0.240752351,74.3924765 C0.240752351,74.3924765 1.21998708,74.9580877 2.96584007,75.9665017 Z" fill="#C7D6F7"></path>
	</g>
</svg>

<svg width="256" height="296" xmlns="http://www.w3.org/2000/svg" preserveAspectRatio="xMidYMid"><path d="M125.306 214.373l.934 77.731 1.68 3.46 127.679-73.75-72.306-41.811-55.373 31.94-2.614 2.43z" fill="#A3BAF0"/><path d="M.24 221.813l127.68 73.75v-83.54l-55.293-31.94v-67L4.955 74.393H.24v147.42z" fill="#4474E1"/><path d="M2.966 75.967l67.378 38.918 2.283 1.318 55.293-31.94 55.373 31.94 72.306-41.81L127.919.641.242 74.392l2.725 1.575z" fill="#C7D6F7"/></svg>
